svg/color/rddton.svg

<svg width="40" height="40" viewBox="0 0 40 40" fill="none" xmlns="http://www.w3.org/2000/svg">
<g clip-path="url(#clip0_819_3759)">
<path d="M20 0C31.0457 0 40 8.9543 40 20C40 31.0457 31.0457 40 20 40C8.95431 40 7.90517e-06 31.0457 0 20C6.58765e-07 8.95431 8.95431 1.97595e-06 20 0Z" fill="#FFDACC"/>
<path d="M26 6C30.4183 6 34 9.58172 34 14V26C34 30.4183 30.4183 34 26 34H14C9.58172 34 6 30.4183 6 26V14C6 9.58172 9.58172 6 14 6H26Z" fill="#FF4500"/>
<g clip-path="url(#clip1_819_3759)">
<path d="M20 10C14.4775 10 10 14.4775 10 20C10 22.7617 11.1192 25.2617 12.9292 27.0708L11.0242 28.9758C10.6458 29.3542 10.9142 30 11.4483 30H20C25.5225 30 30 25.5225 30 20C30 14.4775 25.5225 10 20 10ZM23.6567 12.6658C24.5767 12.6658 25.3225 13.4117 25.3225 14.3317C25.3225 15.2525 24.5767 15.9983 23.6567 15.9983C22.8683 15.9983 22.2075 15.4508 22.0342 14.7158V14.7175C21.0783 14.8525 20.3408 15.6758 20.3408 16.6683V16.6742C21.8208 16.73 23.1742 17.1467 24.2458 17.81C24.64 17.5075 25.1325 17.3267 25.6683 17.3267C26.9575 17.3267 28.0033 18.3717 28.0033 19.6617C28.0033 20.5925 27.4575 21.3958 26.6692 21.7708C26.5958 24.4842 23.6383 26.6675 20.005 26.6675C16.3708 26.6675 13.4175 24.4867 13.34 21.7758C12.545 21.4033 11.995 20.5967 11.995 19.6608C11.995 18.3708 13.0408 17.3258 14.3308 17.3258C14.8683 17.3258 15.3633 17.5075 15.7575 17.8133C16.82 17.155 18.1583 16.7375 19.6242 16.6758V16.6675C19.6242 15.2817 20.6767 14.1392 22.0242 13.995C22.1808 13.2358 22.8517 12.6658 23.6567 12.6658ZM16.9192 19.6458C16.2658 19.6458 15.7033 20.2958 15.6642 21.1433C15.625 21.99 16.1975 22.3342 16.8525 22.3342C17.5075 22.3342 17.995 22.0267 18.0342 21.18C18.0733 20.3325 17.5733 19.6458 16.9192 19.6458ZM23.0908 19.6458C22.4358 19.6458 21.9367 20.3325 21.9758 21.18C22.015 22.0275 22.5042 22.3342 23.1575 22.3342C23.8117 22.3342 24.385 21.99 24.3458 21.1433C24.3075 20.2958 23.745 19.6458 23.0908 19.6458ZM20.005 22.99C19.1933 22.99 18.4158 23.03 17.6967 23.1025C17.5742 23.115 17.4958 23.2425 17.5442 23.3567C17.9467 24.3183 18.8958 24.9933 20.005 24.9933C21.1133 24.9933 22.0633 24.3183 22.4658 23.3567C22.5133 23.2425 22.435 23.115 22.3125 23.1025C21.5933 23.03 20.8167 22.99 20.005 22.99Z" fill="white"/>
</g>
</g>
<defs>
<clipPath id="clip0_819_3759">
<rect width="40" height="40" fill="white"/>
</clipPath>
<clipPath id="clip1_819_3759">
<rect width="20" height="20" fill="white" transform="translate(10 10)"/>
</clipPath>
</defs>
</svg>

<svg xmlns="http://www.w3.org/2000/svg" width="40" height="40" fill="none" viewBox="0 0 40 40"><g clip-path="url(#rddton_svg-a)"><path fill="#FFDACC" d="M20 0c11.046 0 20 8.954 20 20s-8.954 20-20 20S0 31.046 0 20 8.954 0 20 0"/><path fill="#FF4500" d="M26 6a8 8 0 0 1 8 8v12a8 8 0 0 1-8 8H14a8 8 0 0 1-8-8V14a8 8 0 0 1 8-8z"/><g clip-path="url(#rddton_svg-b)"><path fill="#fff" d="M20 10c-5.523 0-10 4.477-10 10a9.97 9.97 0 0 0 2.93 7.07l-1.906 1.906A.6.6 0 0 0 11.448 30H20c5.523 0 10-4.477 10-10s-4.477-10-10-10m3.657 2.666a1.666 1.666 0 1 1-1.623 2.05v.002a1.97 1.97 0 0 0-1.693 1.95v.006c1.48.056 2.833.473 3.905 1.136a2.335 2.335 0 1 1 2.423 3.96c-.073 2.714-3.03 4.897-6.664 4.897s-6.587-2.18-6.665-4.891a2.334 2.334 0 0 1 .99-4.45 2.32 2.32 0 0 1 1.428.487c1.062-.658 2.4-1.075 3.866-1.137v-.008a2.69 2.69 0 0 1 2.4-2.673c.157-.76.828-1.33 1.633-1.33m-6.738 6.98c-.653 0-1.216.65-1.255 1.497s.534 1.191 1.188 1.191c.656 0 1.143-.307 1.182-1.154.04-.848-.46-1.534-1.115-1.534m6.172 0c-.655 0-1.154.686-1.115 1.534s.528 1.154 1.181 1.154c.655 0 1.228-.344 1.189-1.19-.038-.848-.601-1.498-1.255-1.498m-3.086 3.344c-.812 0-1.59.04-2.308.113a.185.185 0 0 0-.153.254 2.666 2.666 0 0 0 4.922 0 .185.185 0 0 0-.153-.255 23 23 0 0 0-2.308-.112"/></g></g><defs><clipPath id="rddton_svg-a"><path fill="#fff" d="M0 0h40v40H0z"/></clipPath><clipPath id="rddton_svg-b"><path fill="#fff" d="M10 10h20v20H10z"/></clipPath></defs></svg>
